!!!OTL: Et war e Medchen zu Götzen (2-36), S. 94
!!!id: K1120
**kern
*clefG2
*k[b-]
*F:
{8c
=1
4f
8f
8f
8e
8f
=2
4g
8e
4c
8c
=3
4.f}
4r
=4
{8c
=5
8f
8f
8f
8f
8e
8f
=6
4g
8e
4c
8c
=7
4.f}
4r
=8
{8a
=9
4a
8a
8a
8g
8a
=10
4.b-
4a
8a
=11
4g}
=12
{16g
16g
8g
8f
8g
=13
4cc
8a
4f}
=14
{8cc
=15
4a
8a
4g
8g
=16
4.f}
=17
{4.g
=18
8a
8b-
8a
8g
8f
8g
=19
4.f}
4r
==
*-
!!!minrhy: 16
!!!meters: 6/8 ]  ZZ[6
!!!cut: Et war e Medchen zu Götzen (2-36), S. 94
!!!reg: Luxemburg
!!!trd: KINTZELE, Guillaume: An der Ucht, Bd. 2, Luxemburg 1927
!!!rhy1: X_  X__X_X_X_X_  X__X_X__X_  X__.0_   (x2)
!!!rhy2: X_  X_X_X_X_X_X_  X__X_X__X_  X__.0_
!!!key: K1120  16  F 6/8 ]  ZZ[6
!!!mod: SECHSTONSKALA DUR ?]  AMBITUS[8
!!!kad: 112111
!!!akz: 112-51_112-51_33432_251_321_2321_
!!!fot: 'a__av_b__c__d__e__
!!!for: 'a__b__c__aw_aw_bw_
!!!fok: '~a_~a_\__^d_\__^d_
!! PHRAS[AUFTAKTIG]
!!!fkt: Spottlied, bei Thill unter Liebeslied
!! KINTZELE
!! PR[43] 2K[0] 2G[6] 3K[9] 3G[3] 4A[1] 4Ü[0] 5A[0] 6K[0] 6G[3]
!! 7K[0] 7G[0] 8A[0] MEHR[0] SI[22] ABS[69] SR[6] SP[16]
!! ST[25] 2k[6] 2g[19] 3k[7] 3g[3] 4d[0] 4ü[0] 5d[0] 6k[0] 6g[0]
!! 7k[0] 7g[0] 8d[0] mehr[0] si[35] dm[-13] sr[25] sp[10]
!! 1F[4] 2F[51] 3F[37] 4F[0] LF[0] 2P[4] 3P[3] 4P[0] TRI[0] DF[5] AB[70]
!! TF[0] U3K[0] U3[0] U4[0] U4Ü[0] U5[0] U6K[0] U6[0] U7K[0] U7[0]
!! N1[13] N2K[0] N2[9] N3K[0] N3[20] N4[17] N4Ü[0] N5[30] N6K[0] N6[11]
!!!n7k: 0] N7[0] O1[0] O2K[0] O2[0] O3K[0] O3[0] HÖ[0
